X: 1
T:DANCING FEET
M:C|
L:1/8
Q:80
C:G.S. Mac Lennan
S:Reel
K:HP
|: {d}c/2|
{ag}a3e/2a/2ce{g}A3/2{d}c/2|
{ag}a3e/2a/2ce{g}B3/2{d}c/2|  !
{ag}a3e/2a/2ce{g}A3/2e/2|
{g}faef{g}ce{g}B:| |:
{d}c/2|  !
{gef}eA{gAGAG}A2{gcd}ce{g}A3/2{d}c/2|
{gef}eA{gAGAG}A2{d}ce{g}B3/2{d}c/2|
{gef}eA{gAGAG}A2{gcd}ce{g}A3/2{d}e/2|  !
{g}faef{g}ce{g}B:|
